X: 20031
Q: "Slow"
M: 3/4
L: 1/8
K: D
(de) |\
f3 e f2 | a3 f e2 | d2 B2 c2 | {e}d4 de |\
f3 g f2 | {f}e2 d2 e2 | f2 d2 B2 B4 "^D.C."|]


